X:1
T: Miss Mountan's Hornpipe
C:
R:Reel
Q: 232
K:F
M:4/4
L:1/8
|:cB|Ac fa gb eg|fc dc BA GF|EG ce cB AG|FE GE C3B,|
A,C EA cf af|ed bg fe dc|fc db ge ce|f2 f2 f2:|
|:ga|ge ce ge ba|gf ed ^ce AG|FA df Ad fa|gf ef de fd|
cA GF EG CB,|A,C FA cf af|Bd gb EG ce|f2 f2 f2:|
